svgs/sharp-solid/plane-circle-exclamation.svg

<svg xmlns="http://www.w3.org/2000/svg" viewBox="0 0 640 512"><!--! Font Awesome Pro 6.6.0 by @fontawesome - https://fontawesome.com License - https://fontawesome.com/license (Commercial License) Copyright 2024 Fonticons, Inc. --><path d="M192 93.7C192 59.5 221 0 256 0c36 0 64 59.5 64 93.7l0 66.3 85.5 57C354.3 247.8 320 303.9 320 368c0 54.7 24.9 103.5 64 135.8l0 8.2L256 480 128 512l0-64 64-48 0-80L0 384l0-96L192 160l0-66.3zM496 224a144 144 0 1 1 0 288 144 144 0 1 1 0-288zm16 224l0-32-32 0 0 32 32 0zm0-176l-32 0 0 16 0 80 0 16 32 0 0-16 0-80 0-16z"/></svg>

<svg xmlns="http://www.w3.org/2000/svg" viewBox="0 0 640 512"><!--! Font Awesome Pro 6.4.2 by @fontawesome - https://fontawesome.com License - https://fontawesome.com/license (Commercial License) Copyright 2023 Fonticons, Inc. --><path d="M192 93.7C192 59.5 221 0 256 0c36 0 64 59.5 64 93.7l0 66.3 85.5 57C354.3 247.8 320 303.9 320 368c0 54.7 24.9 103.5 64 135.8V512L256 480 128 512V448l64-48V320L0 384V288L192 160V93.7zM496 224a144 144 0 1 1 0 288 144 144 0 1 1 0-288zm16 224V416H480v32h32zm0-176H480v16 80 16h32V368 288 272z"/></svg>
